resources/haticons/SVG/codeforces.svg

<!-- Generated by IcoMoon.io -->
<svg version="1.1" xmlns="http://www.w3.org/2000/svg" width="24" height="24" viewBox="0 0 24 24">
<title>codeforces</title>
<path fill="#1f8acb" d="M4.5 7.5c0.828 0 1.5 0.672 1.5 1.5v10.5c0 0.828-0.672 1.5-1.5 1.5h-3c-0.827 0-1.5-0.672-1.5-1.5v-10.5c0-0.828 0.673-1.5 1.5-1.5zM13.5 3c0.828 0 1.5 0.672 1.5 1.5v15c0 0.828-0.672 1.5-1.5 1.5h-3c-0.827 0-1.5-0.672-1.5-1.5v-15c0-0.828 0.673-1.5 1.5-1.5zM22.5 10.5c0.828 0 1.5 0.672 1.5 1.5v7.5c0 0.828-0.672 1.5-1.5 1.5h-3c-0.828 0-1.5-0.672-1.5-1.5v-7.5c0-0.828 0.672-1.5 1.5-1.5z"></path>
</svg>

<svg xmlns="http://www.w3.org/2000/svg" width="24" height="24"><path fill="#1f8acb" d="M4.5 7.5A1.5 1.5 0 0 1 6 9v10.5A1.5 1.5 0 0 1 4.5 21h-3C.673 21 0 20.328 0 19.5V9c0-.828.673-1.5 1.5-1.5zm9-4.5A1.5 1.5 0 0 1 15 4.5v15a1.5 1.5 0 0 1-1.5 1.5h-3c-.827 0-1.5-.672-1.5-1.5v-15c0-.828.673-1.5 1.5-1.5zm9 7.5A1.5 1.5 0 0 1 24 12v7.5a1.5 1.5 0 0 1-1.5 1.5h-3a1.5 1.5 0 0 1-1.5-1.5V12a1.5 1.5 0 0 1 1.5-1.5z"/></svg>
